X:386
T: Hao cao ge
N: C1421
O: China,Gansu, Kangxian
S: I, 139]
R: Shange, Tiange. Nongtian laodong chang]
M: 2/4
L: 1/16
K: F
c2cdf4 | gagfdc3 | f4c2c2 | BG3z4 |
c3dg8 | fgfdc4 | d4f3d | c2cBG4 |
cdg2f3d | c2d2c2cd | f3gd2d2 | c4c4

@@@ Tune index: 6387
